X:1
T:Ama ch'io t'amo
T:Ama ch'io t'amo
T:Clausio Saracini
T:Source : Le terze Musische per cantar e sonar---Venetia---A.Vincenti---1620. Editor : André Vierendeels (09/12/15).
T:Notes : Original clefs : C1, F4 Editorial accidentals above the staff Figutres above the BC are notated in original print 
C:Clausio Saracini
%%score 1 2
L:1/8
Q:1/4=120
M:4/4
K:F
V:1 treble nm="Soprano" snm="S"
V:2 bass nm="BC" snm="BC"
V:1
 z4 z GA=B | c6 B2 | A8 | G8 :: z AAB c3 _e | d4 c4 | z fed ^c3 d | e4 d4 | _ee e4 Bc | d4 d4 | %10
w: A- ma ch'io|t'a- m'o|Fil-|li.|A- ma'il cor mio che|bra- ma,|di fol' a- mar chi|l'a- ma,|giu- sta leg- ge'in a-|ma- re,|
 z2 de f4- |"^b" f2 ed c4 | B8 :: dd _e3 e d2 | c4 c4 | d4 cBAG | A8 | G8 :| %18
w: giu- sta leg-|* ge'in a- ma-|re.|E fra l'al- tre mag-|gio- re|dar per a- mo- re'a-|mo-|re.|
V:2
"^-natural" G,,8 | E,4 C,2 D,2- | D,8 | G,,8 :: F,,6 C,2 | G,,4 C,4 | D,4 A,,4- |"^#" A,,4 D,4 | %8
"^b" C,4 _E,4 | B,,8 | G,A, B,4 A,G, | F,8 | B,,8 :: B,,2 C,4 D,2 | F,,4 F,,4 | B,,4 C,2 _E,2 | %16
 D,8 | G,,8 :| %18

